packages/icons/svg/Outline/code.svg

<svg width="24" height="24" viewBox="0 0 24 24" fill="none" xmlns="http://www.w3.org/2000/svg">
<g id="Icon/Outline/code">
<path id="Mask" fill-rule="evenodd" clip-rule="evenodd" d="M16.9513 5.373L21.7793 11.373C22.0783 11.744 22.0733 12.274 21.7683 12.641L16.7683 18.641C16.5703 18.878 16.2863 19 15.9993 19C15.7733 19 15.5473 18.924 15.3593 18.769C14.9353 18.415 14.8783 17.784 15.2313 17.359L19.7083 11.989L15.3923 6.627C15.0473 6.196 15.1143 5.567 15.5453 5.221C15.9753 4.873 16.6043 4.943 16.9513 5.373ZM7.23155 5.3594C7.58455 4.9354 8.21355 4.8784 8.64055 5.2314C9.06455 5.5854 9.12155 6.2154 8.76855 6.6404L4.29155 12.0104L8.60755 17.3734C8.95255 17.8034 8.88555 18.4324 8.45455 18.7794C8.27055 18.9274 8.04855 19.0004 7.82855 19.0004C7.53655 19.0004 7.24655 18.8724 7.04855 18.6274L2.22055 12.6274C1.92155 12.2554 1.92655 11.7254 2.23155 11.3594L7.23155 5.3594Z" fill="#000000"/>
</g>
</svg>

<svg fill="none" height="24" viewBox="0 0 24 24" width="24" xmlns="http://www.w3.org/2000/svg"><path clip-rule="evenodd" d="m16.9513 5.37294 4.828 5.99996c.299.371.294.901-.011 1.268l-5 6c-.198.237-.482.359-.769.359-.226 0-.452-.076-.64-.231-.424-.354-.481-.985-.128-1.41l4.477-5.37-4.316-5.36196c-.345-.431-.278-1.06.153-1.406.43-.348 1.059-.278 1.406.152zm-9.71969-.0136c.353-.424.982-.481 1.409-.128.424.354.481.984.128 1.409l-4.477 5.36996 4.316 5.363c.345.43.278 1.059-.153 1.406-.184.148-.406.221-.626.221-.292 0-.582-.128-.78-.373l-4.828-6c-.299-.372-.294-.902.011-1.268z" fill="#6b7280" fill-rule="evenodd"/></svg>
